X:1
T:Under the Mistletoe
T:A Christmas Waltz
T:Louis F. Gottschalk
T:1912
T:1912
T:1912
Z:1912
%%score { ( 1 2 ) | ( 3 4 ) }
L:1/8
Q:1/4=160
M:3/4
K:C
V:1 treble nm="Piano" snm="Pno."
V:2 treble 
V:3 bass 
V:4 bass 
V:1
!p!"^Con tenerezza" E6 | E2 !>![F,A,D]3 C | E6 | E2 !>![F,A,D]3 C | E6 | E2 !>![F,A,D]3 C | G6 | %7
 A6 | B6 | B2 !>![CEA]3 G | B6 | B2 !>![^CEA]3 G | A6 | A2"_cresc." [C^FB]2 [CFc]2 | B6 | G6 | %16
!mf! [Ee]6 | e2 !>![FAd]3 c | [Ee]6 | e2 !>![FAd]3 c | [Ee]6 | e2 !>![FAd]3 c | [Gg]6 | [Aa]6 | %24
 [Ff]6 | f2 e2 d2 | [Aa]6 | [FAf]4 [Dd]2 | c2 A2 c2 | [FAd]4 [FBe]2!dacoda! |1 [Ec]6 | %31
 [cec']2 z2 z2 :|2 [Ec]6 | [cec']2"_poco Allegro"[Q:1/4=170]!<(! (ABcd)!<)! |: %34
!f! .[Ace]z.[Aca]z.[Ace] z | .[Adf]z.[Ada]z.[Adf] z | ([ce][Bd][Ac][Bd] [ce]2) | %37
 ([ce][Bd][Ac][Bd] [ce]2) | .B2 .e2 .B2 | (cB A4) | .[AB].[AB] .[Ac]2 .[AB]2 | %41
 .[^Ge]2!mf!!<(! (ABcd)!<)! |!f! .[Ace]z.[Aca]z.[Ace] z | .[Adf]z.[Ada]z.[Adf] z | %44
 ([ce][Bd][Ac][Bd] [ce]2) | ([ce][Bd][Ac][Bd] [ce]2) | .[Ad]2 .[Af]2 .[FA]2 | (c4 B2) |1 [CEA]6- | %49
 [CEA]2!mf!!<(! (ABcd)!<)! :|2 [CEA]6- | [CEA]2 z2 z2 ||[Q:1/4=160]!p! E6 | E2 !>![F,A,D]3 C | E6 | %55
 E2 !>![F,A,D]3 C | E6 | E2 !>![F,A,D]3 C | G6 | A6 | B6 | B2 !>![CEA]3 G | B6 | B2 !>![^CEA]3 G | %64
 A6 | A2!<(! [C^FB]2 [CFc]2 | B6 | G6!<)! |!mf! [Ee]6 | e2 !>![FAd]3 c | [Ee]6 | e2 !>![FAd]3 c | %72
 [Ee]6 | e2 !>![FAd]3 c | [Gg]6 | [Aa]6 | [Ff]6 | f2 e2 d2 | [Aa]6 | [FAf]4 [Dd]2 | c2 A2 c2 | %81
 [FAd]4 [FBe]2 | [Ec]6 | [cec']2 z2 z2 ||[K:F]!mf!"_dolce" [F,F]2 [G,G]2 [A,A]2 | %85
 [Ee]2 [Dd]3 [A,A] | [Cc]6 |!f! [Cc]6 | [F,F]2 [G,G]2 [A,A]2 | [Ee]2 [Dd]3 [A,A] | [Cc]6 | %91
!f! [Cc]6 | [F,F]2 [G,G]2 [A,A]2 | [A,A]2 [B,B]2 [Cc]2 | [Dd]6 | [Dd]6 | [B,B]2 [Cc]2 [Dd]2 | %97
 [D,D]2 [A,A]3 [G,G] | [F,F]6 | [G,G]6 | [F,F]2 [G,G]2 [A,A]2 | [Ee]2 [Dd]3 [A,A] | [Cc]6 | [Cc]6 | %104
 [F,F]2 [G,G]2 [A,A]2 | [Ee]2 [Dd]3 [A,A] | [Cc]6 | [Cc]6 | [F,F]2 [G,G]2 [A,A]2 | %109
 [Gg]2 [Ff]3 [^C^c] | [Dd]6 | [^G,^G]6 |"_cresc." !>![CFAc]2 !>![^CFA^c]2 !>![DFAd]2 | %113
 !>![DGBd]2 !>![FBdf]2 !>![GBeg]2 |!f! ([FAf]6 | [ad']2) z2 z2!D.C.! || %116
[K:C][M:3/4]O[K:treble]!mf! [Ec]2"_cresc." .[CE]2 .[EG]2 | .[Gc]2 .[EG]2 .[Gc]2 | [ce]2 z2 z2 | %119
!ff! !>![GBfg]2 z2 z2 | !>![cec']2 z2 z2 | !>!C2 z2 z2 |] %122
V:2
 z2 [G,C]2 [G,C]2 | x6 | z2 [G,C]2 [G,C]2 | x6 | z2 [G,C]2 [G,C]2 | x6 | z2 [G,CE]2 [G,CE]2 | %7
 (E2 D2 C2) | z2 [B,EG]2 [B,EG]2 | x6 | z2 [B,EG]2 [B,EG]2 | x6 | z2 [=CG]2 [CG]2 | x6 | %14
 z2 [C=FA]2 [CFA]2 | z2 [B,F]2 [B,F]2 | z2 [Gc]2 [Gc]2 | x6 | z2 [Gc]2 [Gc]2 | x6 | %20
 z2 [Gc]2 [Gc]2 | x6 | z2 [ce]2 [ce]2 | (e2 d2 c2) | z2 [Ad]2 [Ad]2 | [FB]6 | z2 [^ce]2 [ce]2 | %27
 x6 | [CE]6 | x6 |1 x6 | x6 :|2 x6 | x6 |: x6 | x6 | x6 | x6 | x6 | x6 | x6 | x6 | x6 | x6 | x6 | %45
 x6 | x6 | [D^G]6 |1 x6 | x6 :|2 x6 | x6 || z2 [G,C]2 [G,C]2 | x6 | z2 [G,C]2 [G,C]2 | x6 | %56
 z2 [G,C]2 [G,C]2 | x6 | z2 [G,CE]2 [G,CE]2 | (E2 D2 C2) | z2 [B,EG]2 [B,EG]2 | x6 | %62
 z2 [B,EG]2 [B,EG]2 | x6 | z2 [=CG]2 [CG]2 | x6 | z2 [C=FA]2 [CFA]2 | z2 [B,F]2 [B,F]2 | %68
 z2 [Gc]2 [Gc]2 | x6 | z2 [Gc]2 [Gc]2 | x6 | z2 [Gc]2 [Gc]2 | x6 | z2 [ce]2 [ce]2 | (e2 d2 c2) | %76
 z2 [Ad]2 [Ad]2 | [FB]6 | z2 [^ce]2 [ce]2 | x6 | [CE]6 | x6 | x6 | x6 ||[K:F] x6 | x6 | %86
 z2!<(! [EG]2 [EG]2 | z2!<)!!mf! [E^G]2 [EG]2 | x6 | x6 | z2!<(! [EG]2 [EG]2 | %91
 z2!<)!!mf! [E^G]2 [EG]2 | x6 | x6 | z2 [FB]2 [FB]2 | z2 [FA]2 [FA]2 | x6 | x6 | z2 [B,D]2 [B,D]2 | %99
 z2 [CE]2 [CE]2 | x6 | x6 | z2 [EG]2 [EG]2 | z2 [E^G]2 [EG]2 | x6 | x6 | z2 [EG]2 [EG]2 | %107
 z2 [E^G]2 [EG]2 | x6 | x6 | z2 [FB]2 [FB]2 | z2 [FB]2 [FB]2 | x6 | x6 | x6 | [Fcf]2 x4 || %116
[K:C][M:3/4][K:treble] x6 | x6 | x6 | x6 | x6 | x6 |] %122
V:3
 C,,6 | F,,6 | C,,6 | F,,6 | C,,6 | F,,6 | C,,6 | [A,,,A,,]6 | E,,6 | A,,6 | E,,6 | A,,6 | D,,6 | %13
 D,,2 D,2 D,2 | z2 G,2 G,2 | z2 G,2 G,2 | C,,2 [E,G,C]2 [E,G,C]2 | F,,2 [F,A,D]4 | %18
 C,,2 [E,G,C]2 [E,G,C]2 | F,,2 [F,A,D]4 | C,,2 [E,G,C]2 [E,G,C]2 | F,,2 [F,A,D]4 | %22
 C,,2 [G,CE]2 [G,CE]2 | [A,,,A,,]2 [A,CE]4 | D,,2 [F,A,D]2 [F,A,D]2 | z2 G,2 F,2 | %26
 [^C,,^C,]2 [A,EG]2 [A,EG]2 | [D,,D,]2 [F,A,D]2 [F,A,]2 | [A,,E,A,]6 | G,2 G,,2 G,2 |1 %30
 (C,,2 G,,2 C,2) | !arpeggio![CG]2 z2 z2 :|2 (C,,2 G,,2 C,2) | !arpeggio![CG]2 z2 z2 |: %34
 A,,2 [A,CE]2 [A,CE]2 | D,2 [A,DF]2 [A,DF]2 | A,,2 [A,CE]2 [A,CE]2 | E,2 [A,CE]2 [A,CE]2 | %38
 z2 [B,E]2 [B,E]2 | z2 [A,C]2 [A,C]2 | .[^F,B,^D].[F,B,D] .[F,B,E]2 .[F,B,D]2 | .[E,B,E]2 z2 z2 | %42
 A,,2 [A,CE]2 [A,CE]2 | D,2 [A,DF]2 [A,DF]2 | A,,2 [A,CE]2 [A,CE]2 | z2 [CE]2 [CE]2 | %46
 F,2 [A,D]2 [A,D]2 | E,2 E,,2 E,2 |1 .[A,,A,]2 .E,2 .C,2 | .A,,2 z2 z2 :|2 .[A,,A,]2 .E,2 .C,2 | %51
 .A,,2 !>![_A,,_A,]2 !>![G,,G,]2 || C,,6 | F,,6 | C,,6 | F,,6 | C,,6 | F,,6 | C,,6 | [A,,,A,,]6 | %60
 E,,6 | A,,6 | E,,6 | A,,6 | D,,6 | D,,2 D,2 D,2 | z2 G,2 G,2 | z2 G,2 G,2 | %68
 C,,2 [E,G,C]2 [E,G,C]2 | F,,2 [F,A,D]4 | C,,2 [E,G,C]2 [E,G,C]2 | F,,2 [F,A,D]4 | %72
 C,,2 [E,G,C]2 [E,G,C]2 | F,,2 [F,A,D]4 | C,,2 [G,CE]2 [G,CE]2 | [A,,,A,,]2 [A,CE]4 | %76
 D,,2 [F,A,D]2 [F,A,D]2 | z2 G,2 F,2 | [^C,,^C,]2 [A,EG]2 [A,EG]2 | [D,,D,]2 [F,A,D]2 [F,A,]2 | %80
 [A,,E,A,]6 | G,2 G,,2 G,2 | (C,,2 G,,2 C,2) | !arpeggio![CG]2 z2 z2 ||[K:F] F,,2 G,,2 A,,2 | %85
 E,2 D,2 A,,2 | G,,6 | z2 !>!B,4 | F,,2 G,,2 A,,2 | E,2 D,2 A,,2 | G,,6 | z2 !>!B,4 | %92
 F,,2 G,,2 A,,2 | A,,2 B,,2 C,2 | z2 [F,B,]2 [F,B,]2 | z2 [F,A,C]2 [F,A,C]2 | [G,,D,]2 C,2 D,2 | %97
 D,,2 A,,3 G,, | z2 C,4 | z2 C,4 | F,,2 G,,2 A,,2 | E,2 D,2 A,,2 | G,,6 | z2 !>!B,4 | %104
 F,,2 G,,2 A,,2 | E,2 D,2 A,,2 | G,,6 | z2 !>!B,4 | F,,2 G,,2 A,,2 | G,2 F,3 ^C, | %110
 z2 [F,B,]2 [F,B,]2 | z2 B,,2 B,,2 | !>![C,,C,]2 !>![C,,C,]2 !>![C,,C,]2 | %113
 !>![C,,C,]2 !>![C,,C,]2 !>![C,,C,]2 | [F,,,F,,]2 C,2 A,2 | z6 ||[K:C][M:3/4] [C,G,]2 .G,2 .C2 | %117
 .E2 .C2 .E2 | .G2 z2 z2 | !>![G,,G,]2 z2 z2 | !>![C,,C,]2 z2 z2 | !>![C,,C,]2 z2 z2 |] %122
V:4
 x6 | x6 | x6 | x6 | x6 | x6 | x6 | x6 | x6 | x6 | x6 | x6 | x6 | x6 | G,,6 | G,,6 | x6 | x6 | x6 | %19
 x6 | x6 | x6 | x6 | x6 | x6 | G,,6 | x6 | x6 | x6 | x6 |1 x6 | !arpeggio!x2 x4 :|2 x6 | %33
 !arpeggio!x2 x4 |: x6 | x6 | x6 | x6 | !>!^G,6 | !>!F,6 | x6 | x6 | x6 | x6 | x6 | !>!G,6 | x6 | %47
 x6 |1 x6 | x6 :|2 x6 | x6 || x6 | x6 | x6 | x6 | x6 | x6 | x6 | x6 | x6 | x6 | x6 | x6 | x6 | x6 | %66
 G,,6 | G,,6 | x6 | x6 | x6 | x6 | x6 | x6 | x6 | x6 | x6 | G,,6 | x6 | x6 | x6 | x6 | x6 | %83
 !arpeggio!x2 x4 ||[K:F] x6 | x6 | x6 | [C,,C,]6 | x6 | x6 | x6 | [C,,C,]6 | x6 | x6 | B,,6 | %95
 A,,6 | x6 | x6 | C,,6 | C,,6 | x6 | x6 | x6 | [C,,C,]6 | x6 | x6 | x6 | [C,,C,]6 | x6 | x6 | %110
 B,,6 | B,,,6 | x6 | x6 | x6 | x6 ||[K:C][M:3/4] x6 | x6 | x6 | x6 | x6 | x6 |] %122

